X:1
T:Title
%%score { ( 1 3 ) | ( 2 4 ) }
L:1/8
M:6/8
K:Ab
V:1 treble nm="Grand Piano"
V:3 treble 
V:2 bass 
V:4 bass 
V:1
 z3 z2[Q:1/4=96] [CE] | [Ec]2 [Ec] [DB][CA][DF] | [CE]2 [DF] [CE]2 [CE] | A2 A G2 A | %4
[M:5/8] [GB]-[GB]- [GB]3 |[M:1/8] [CE] |[M:3/4] [Ec]2 [Ec][DB] [CA][DF] | [CE]2 [DF] [CE]2 [CE] | %8
 [DF]2 [FA] G2 B |[M:5/8] A-A- A3 |[M:3/4] [Ec]3 B z [A,DF] | [A,CE]3 A3 | c3 c BA | %13
 [Ac]3 [GB]2 [Ge] |[M:3/8] eee | cBA |[M:15/16] B[FB]/-[FB]/[Fc][Fd]3/2- [Fd]3 |[M:3/4] c3 e cA | %18
 B3 .[CA]3 |] %19
V:2
 z3 z2 [A,,A,] | [A,,A,]2 [A,,A,] [A,,A,]2 [A,,A,] | [A,,A,]2 [A,,A,] [A,,A,]2 [A,,A,] | %3
 [A,CE]2 [A,CE] [B,DE]2 [A,CE] |[M:5/8] [E,E]-[E,E]- [E,E]3 |[M:1/8] [A,,A,] | %6
[M:3/4] [A,,A,]2 [A,,A,] [A,,A,]2 [A,,A,] | [A,,A,]2 [A,,A,] [A,,A,]2 [A,,A,] | %8
 [D,A,]2 [D,D] [E,DE]2 [E,DE] |[M:5/8] [A,CE]-[A,CE]- [A,CE]3 |[M:3/4] [A,,A,]4 AD, | %11
 A,,C, E,[K:treble] [A,CE]3 | [A,EA]3 [A,EA] [A,DA][A,C] | [E,E]3 [E,E]2 [E,D] | %14
[M:3/8][K:treble] [A,CA][A,CA][A,CA] | [A,EA][A,DE][K:bass][A,CE] | %16
[M:15/16] [F,DF][D,B,]/-[D,B,]/[C,=A,][B,,B,]3/2- [B,,B,]3 | %17
[M:3/4] [E,A,E]3 [E,CE] [E,A,E][E,A,C] | [E,G,D]3 .[A,,A,]3 |] %19
V:3
 x6 | x6 | x6 | x6 |[M:5/8] x5 |[M:1/8] x |[M:3/4] x6 | x6 | x6 |[M:5/8] x5 |[M:3/4] z2 z .F3 | %11
 x6 | x6 | x6 |[M:3/8] x3 | x3 |[M:15/16] x15/2 |[M:3/4] x6 | x6 |] %19
V:4
 x6 | x6 | x6 | x6 |[M:5/8] x5 |[M:1/8] x |[M:3/4] x6 | x6 | x6 |[M:5/8] x5 | %10
[M:3/4] z2 z .[D,A,]3 | x3[K:treble] x3 | x6 | x6 |[M:3/8][K:treble] x3 | x2[K:bass] x | %16
[M:15/16] x15/2 |[M:3/4] x6 | x6 |] %19

